storage/app/icons/phosphoricons/light/credit-card-light.svg

<svg xmlns="http://www.w3.org/2000/svg" fill="currentColor" viewBox="0 0 256 256"><path d="M224 50H32a14 14 0 0 0-14 14v128a14 14 0 0 0 14 14h192a14 14 0 0 0 14-14V64a14 14 0 0 0-14-14M32 62h192a2 2 0 0 1 2 2v26H30V64a2 2 0 0 1 2-2m192 132H32a2 2 0 0 1-2-2v-90h196v90a2 2 0 0 1-2 2m-18-26a6 6 0 0 1-6 6h-32a6 6 0 0 1 0-12h32a6 6 0 0 1 6 6m-64 0a6 6 0 0 1-6 6h-16a6 6 0 0 1 0-12h16a6 6 0 0 1 6 6"/></svg>

<svg xmlns="http://www.w3.org/2000/svg" viewBox="0 0 256 256" fill="currentColor"><path d="M224,50H32A14,14,0,0,0,18,64V192a14,14,0,0,0,14,14H224a14,14,0,0,0,14-14V64A14,14,0,0,0,224,50ZM32,62H224a2,2,0,0,1,2,2V90H30V64A2,2,0,0,1,32,62ZM224,194H32a2,2,0,0,1-2-2V102H226v90A2,2,0,0,1,224,194Zm-18-26a6,6,0,0,1-6,6H168a6,6,0,0,1,0-12h32A6,6,0,0,1,206,168Zm-64,0a6,6,0,0,1-6,6H120a6,6,0,0,1,0-12h16A6,6,0,0,1,142,168Z"/></svg>
